src/lib/packages/icons/src/assets/filled/file-heart.svg

<svg width="24" height="24" viewBox="0 0 24 24" fill="none" xmlns="http://www.w3.org/2000/svg">
<path d="M14.75 6V3.75L19.25 8.25H17C15.42 8.25 14.75 7.58 14.75 6ZM20 9.75V18C20 20 19 21 17 21H8C6 21 5 20 5 18V6C5 4 6 3 8 3H13.25V6C13.25 8.42 14.58 9.75 17 9.75H20ZM14.0471 11.25C12.8891 11.245 12.5 12.393 12.5 12.393C12.5 12.393 12.1109 11.245 10.9529 11.25C9.39788 11.257 8.78592 12.685 9.06592 14.104C9.52192 16.417 12.5 17.75 12.5 17.75C12.5 17.75 15.4781 16.418 15.9341 14.104C16.2141 12.685 15.6051 11.257 14.0471 11.25Z" fill="currentColor"/>
</svg>

<svg xmlns="http://www.w3.org/2000/svg" width="24" height="24" fill="none"><path fill="currentColor" d="M14.75 6V3.75l4.5 4.5H17c-1.58 0-2.25-.67-2.25-2.25ZM20 9.75V18c0 2-1 3-3 3H8c-2 0-3-1-3-3V6c0-2 1-3 3-3h5.25v3c0 2.42 1.33 3.75 3.75 3.75h3Zm-5.953 1.5c-1.158-.005-1.547 1.143-1.547 1.143s-.39-1.148-1.547-1.143c-1.555.007-2.167 1.435-1.887 2.854.456 2.313 3.434 3.646 3.434 3.646s2.978-1.332 3.434-3.646c.28-1.419-.329-2.847-1.887-2.854Z"/></svg>
